img/popup/06.svg

<svg width="26" height="31" viewBox="0 0 26 31" fill="none" xmlns="http://www.w3.org/2000/svg">
<path d="M21.1036 16.6769L6.95021 2.79401L6.02691 3.68656L3.88862 12.7464L22.0177 26.0065L23.0402 25.582L21.1036 16.6769Z" fill="black"/>
<path d="M6.91769 2.81322L6.78991 3.94058L6.64298 5.03532C6.5578 5.78689 6.45347 6.50584 6.33566 7.27656L6.02834 9.5178L6.09597 11.3636L7.87841 13.3433L10.0798 15.0772C10.8135 15.6552 11.5473 16.2332 12.2811 16.8111L14.4498 18.5642C15.9174 19.7201 17.3523 20.8952 18.7872 22.0703C19.521 22.6483 20.2222 23.2454 20.9233 23.8425C21.6245 24.4396 22.3583 25.0176 23.0594 25.6147C22.293 25.0558 21.5784 24.5105 20.8446 23.9325C20.1108 23.3545 19.3636 22.8283 18.6298 22.2504C17.1623 21.0944 15.6812 19.9902 14.2137 18.8343L12.0123 17.1004C11.2785 16.5224 10.5448 15.9445 9.81098 15.3665L7.64227 13.6134L5.47355 11.8604L5.40265 11.8143L5.42961 11.7108L5.78869 9.48302L6.14777 7.25526C6.28472 6.51717 6.42166 5.77907 6.55861 5.04098L6.73815 3.9271L6.91769 2.81322Z" fill="white"/>
<path d="M5.6423 11.8491L3.88872 12.7465L5.59473 11.2332L5.6423 11.8491Z" fill="white"/>
</svg>

<svg width="26" height="31" fill="none" xmlns="http://www.w3.org/2000/svg"><path d="M21.104 16.677L6.95 2.794l-.923.893-2.138 9.06 18.129 13.26 1.022-.425-1.936-8.905z" fill="#000"/><path d="M6.918 2.813L6.79 3.941l-.147 1.094a58.88 58.88 0 01-.307 2.242l-.308 2.24.068 1.847 1.782 1.98 2.202 1.733 2.201 1.734 2.169 1.753a292.175 292.175 0 014.337 3.506 72.18 72.18 0 012.136 1.773c.702.597 1.435 1.175 2.136 1.772a73.825 73.825 0 01-2.214-1.682c-.734-.578-1.481-1.105-2.215-1.683-1.468-1.156-2.949-2.26-4.416-3.416L12.012 17.1l-2.201-1.734-2.169-1.753-2.168-1.753-.071-.046.027-.103.359-2.228.359-2.228.41-2.214.18-1.114.18-1.114z" fill="#fff"/><path d="M5.642 11.85l-1.753.896 1.706-1.513.047.616z" fill="#fff"/></svg>
